X: 14
M: 6/8
L: 1/8
K: D
V: 1
a2d' agf | e3 f2d | {ef}g2f ede | d3 :|
|: A2d |\
{d}c2d e2f | {a}g2f e2d | c2d e2f | {f}e3 A2d |\
{d}c2d e2f | g2f e2d | {d}c2d efe | d3 :|
|: DFA |\
b2a {bc'}d'2c' | b2a d'2c' | b2a gfe | d3 :|
|: F2G |\
V: 2 clef=bass middle=d
d2z |\
d2z d2z | a2z d2f | c2d A2d | a3 d2z | d2z d2z |
a3 d2f | c2d a2A | d3 :||: a2a & A3 | g2f e2d & A3 A3 | c2d e2f & A3 A3 | g2f e2d & A3 A3 |
c2z a2a & A2z A3 | g2f e2d & A3 A3 | c2d e2f & A3 A3 | g2f e2g & A3 A2A | f3 & d3 :||: d3 |
d3 d3 | d3 d3 | d3 c2d | a3 d3 | d3 d3 |
d3 d3 | d3 A3 | d3 :||: d3 | d3-d3 | d3-d3 |
a3c3 | d3-d3 | d3-d3 | d3-d2g | a3 A3 | d3 :|


